X: 28192
T: Mrs. Anderson's Wedding
R: waltz
M: 3/4
K: Gmajor
|:G/ (3ABc|d2 d>^c d>e|(3ded g>f e>d|B2 B>^A B>c|(3BcB G>B D>B|
A2 A>^G A>B|(3cdc A>D F>D|1 G2- G>F G>E|D3:|2 G2- G>B d>B|G2- G3/2||
|:G/ (3Bcd|e2 e>^d e>f|g2 (3fgf e2|d2 g<d B<d|G2- G>D (3GAB|
A2 A^G A>B|(3cdc (3ABA (3FED|1 G2- G>F G>E|D3:|2 G2- G>B d<B|G2- G3/2||

